X: 82
T:Llyn Gwernen
M:6/8
L:1/8
Q:130
C:Trad
S:Blodau'r Grug Collection Vol. 3
A:Wales
Z:brian_martin12345@yahoo.com
K:G
D|GFG AFD|cBc dBG|GFG AFD|GE^C DEF|GFG AFD|!cBc dBG|GFG EAG|FEFG2:||
B/c/|ded dBG|e=fe ecG|!ded dBG|GFE DEF|GFG AFD|cBc dBG|GFG EAG|FEF 
 G2:||

